src/images/icons/icon-files.svg

<svg xmlns="http://www.w3.org/2000/svg" width="48" height="48" viewBox="0 0 48 48">
  <g fill="none" fill-rule="evenodd" transform="translate(0 3)">
    <rect width="48" height="39" y="3" fill="#B2D3FF" rx="2"/>
    <path fill="#197BFF" d="M2,0 L20.1715729,0 L20.1715729,-8.8817842e-16 C20.7020059,-9.85617377e-16 21.2107137,0.210713681 21.5857864,0.585786438 L23.4142136,2.41421356 L23.4142136,2.41421356 C23.7892863,2.78928632 24.2979941,3 24.8284271,3 L45,3 L45,3 C46.6568542,3 48,4.34314575 48,6 L48,6 L24.8284271,6 L24.8284271,6 C24.2979941,6 23.7892863,6.21071368 23.4142136,6.58578644 L21.5857864,8.41421356 L21.5857864,8.41421356 C21.2107137,8.78928632 20.7020059,9 20.1715729,9 L2,9 L2,9 C0.8954305,9 1.3527075e-16,8.1045695 0,7 L0,2 L0,2 C-1.3527075e-16,0.8954305 0.8954305,2.02906125e-16 2,0 Z"/>
  </g>
</svg>

<svg xmlns="http://www.w3.org/2000/svg" width="48" height="48"><g fill="none" fill-rule="evenodd" transform="translate(0 3)"><rect width="48" height="39" y="3" fill="#B2D3FF" rx="2"/><path fill="#197BFF" d="M2 0h18.172a2 2 0 0 1 1.414.586l1.828 1.828A2 2 0 0 0 24.828 3H45a3 3 0 0 1 3 3H24.828a2 2 0 0 0-1.414.586l-1.828 1.828A2 2 0 0 1 20.172 9H2a2 2 0 0 1-2-2V2a2 2 0 0 1 2-2Z"/></g></svg>
